X: 36420
T: Seanamhac Tube Station
R: jig
M: 6/8
K: Gdorian
GFD D2 F|GAc d2 d|dcA cAF|GFD CDF|
G3 D2 F|GAc d3|dcA cAF|1 G3 G2 A:|2 G3 GAc||
dcd dcA|c3 A2 c|dcA cAF|GFD C2 c|
dcd dcA|c3 gfd|dcA cAF|G3 GAc||
dcd dcA|c3 A3|dcA c2 A|GFD CDF|
G3 D2 F|GAc dce|dce dcA|G3 G2 A||
d3 g3|e f2 gag|fgf d c2|dcA G F2|
d3 g3|e f2 gag|fgf dcA|F G2 GBd||
gaf g3|e f2 gag|fgf d c2|dcA G F2|
GFD D2 F|GAc dce|dce dce|dce dcA||

